X: 60
T: Da suanzao
L: 1/8
M: 2/4
K: F
d d/ c/ A c [I:setbarnb 1]| 
d d/ c/ A c | 
d d/ c/ A c | 
d> g f d | 
c/ d/ c/ G/c2 | 
d g f d | 
G/ A/F2A | 
G/ A/F3 | 
A> A d c | 
A3G | 
A A F/ G/ F/ D/ | 
C4 |]

@@@ Tune index: 8934
